Sources/FrostedUI/Resources/Icons.xcassets/chevronLeftToLineInBoxSize12.imageset/chevron-left-to-line-in-box-size-12.svg

<svg
  width="12"
  height="12"
  viewBox="0 0 12 12"
  fill="none"
  xmlns="http://www.w3.org/2000/svg"
  data-fui-icon="true"
>
  <path
    d="M0.75 8.25V3.75C0.75 2.09315 2.09315 0.75 3.75 0.75H8.25C9.90685 0.75 11.25 2.09315 11.25 3.75V8.25C11.25 9.90685 9.90685 11.25 8.25 11.25H3.75C2.09315 11.25 0.75 9.90685 0.75 8.25Z"
    stroke="currentColor"
    stroke-width="1.5"
    stroke-linecap="round"
    stroke-linejoin="round"
  />
  <path
    d="M3.75 3.75005V8.24995M8.25 3.75005L6.25 6L8.25 8.24995"
    stroke="currentColor"
    stroke-width="1.5"
    stroke-linecap="round"
    stroke-linejoin="round"
  />
</svg>

<svg xmlns="http://www.w3.org/2000/svg" width="12" height="12" fill="none" data-fui-icon="true" viewBox="0 0 12 12"><path stroke="currentColor" stroke-linecap="round" stroke-linejoin="round" stroke-width="1.5" d="M.75 8.25v-4.5a3 3 0 0 1 3-3h4.5a3 3 0 0 1 3 3v4.5a3 3 0 0 1-3 3h-4.5a3 3 0 0 1-3-3"/><path stroke="currentColor" stroke-linecap="round" stroke-linejoin="round" stroke-width="1.5" d="M3.75 3.75v4.5m4.5-4.5L6.25 6l2 2.25"/></svg>
